X:1
T:Title
L:1/8
M:4/4
K:Ab
V:1 treble nm="Grand Piano"
V:1
 z4 z[Q:1/4=100] F2 F | F3 F- F A2 A | c2 c2 z F2 F | F2 A2- A G2 F | F2 =E2 z E2 E | %5
 =E3 E- E G2 G | B2 B2 z B2 B | B2 B2- B B2 c | AG F2 z c2 c | c3 A- A F2 D | D2 C2- C C2 D | %11
 EF G2- G G2 B | A2 G2 z B2 B | B3 B- B d2 d | d2 c2- c c2 A | F3 D- D G2 =E | D2 C4 z2 |] %17

